X: 20427
T: John Gideon Jamieson
R: reel
M: 4/4
K: Dmajor
AG|F2F2 FGAF|G2G2 GABG|A2A2 ABcA|dcde fdAG|
F2F2 FGAF|G2G2 GABG|A2A2 ABcA|d4d2:|
de|f2d2 d2ef|g2B2 B2ed|c2A2 A2Bc|dcde fefg|
a2d2 d2ef|g2B2 B2ed|c2A2 ABcA|d4d2:|

